X:1
T:Title
%%score { 1 | 2 }
L:1/8
M:6/8
K:E
V:1 treble nm="Grand Piano"
V:2 bass 
V:1
 z3 z2[Q:1/4=100] B | c2 B G2 G | A2 G E3 | [DF]2 [DF] [DF]>E[DF] |[M:5/8] G3 B2 |[M:1/8] B | %6
[M:3/4] c2 B G2 G | A2 G E3 | [DF]2 [DF][DA]- [DA]/[B,DG]/[A,DF] | [A,DF]3 [G,E]3 |[M:1/8] [B,GB] | %11
[M:3/4] [Ge]2 [Ge] [Ge]2 [EGB] | [EAc]2 [EAc] [EGB]3 | [B,EG]2 [B,EG][^A,EG]- [A,EG]/[A,EF]/[A,E] | %14
 [B,EG]3 [B,DF]2 [AB] | [Ge]2 [Ge] [Bd]2 [Ac] | [GB]2 [Ac] [GB]2 [CFA] | %17
 [B,EG]>[B,EG] [B,EG][B,EG] [A,B,F][G,B,E] | [A,DF]3 [G,E]3 |] %19
V:2
 z3 z2 [E,G,E] | [E,A,E]2 [E,G,E] [E,B,E]2 [E,B,E] | [E,CE]2 [E,B,E] [E,G,B,]3 | %3
 [B,,B,]2 [B,,B,] [B,,B,]>[B,,B,][B,,B,] |[M:5/8] [E,B,E]3 [E,G,E]2 |[M:1/8] [E,G,E] | %6
[M:3/4] [E,A,E]2 [E,G,E] [E,B,E]2 [E,=DE] | [E,CE]2 [E,B,E] [E,G,B,]3 | %8
 [B,,A,]2 [B,,A,][B,,F,]- [B,,F,]/B,,/B,, | B,,3 E,3 |[M:1/8] E, | %11
[M:3/4] [E,B,]2 [E,C] [E,B,]2 E, | A,,2 C, E,3 | E,2 E,C,- C,/C,/C, | B,,3 B,,2 B, | %15
 [E,B,]2 [E,B,] [E,E]2 [E,E] | [E,E]2 [E,E] [E,E]2 A,, | B,,>B,, B,,B,, B,,B,, | B,,3 E,3 |] %19

